!!!COM: Odiase, Benedict Elide
!!!CDT: b.1954
!!!OTL: National Anthem, Nigeria
!!!ENC: Davis, Matthew J.
!!Vocal Line Only
**kern
*clefG2
*k[b-]
*F:
*M4/4
=1-
2r
4r
4c
=2
4f
4c
4f
4a
=3
2.cc
4a
=4
4b-
4a
4g
4g
=5
2.f
4c
=6
4f
4c
4f
4a
=7
2.cc
4a
=8
4b-
4a
4g
4g
=9
2.f
4g
=10
4.g
8a
4b-
4g
=11
4.a
8b-
4cc
4cc
=12
4dd
4cc
4b-
4a
=13
2.g
4f
=14
4.cc
8cc
4cc
4a
=15
2.dd
4g
=16
4.g
8a
8.b-
16a
4g
=17
2dd
2cc
=18
4b-
4a
4.g
8g
=19
2.f
==|!
*-
